X:1
T:Lord Randall
M:6/8
L:1/8
K:C
 D| GGGB-d B| dBd B2B/2-A/2| GDED-B, D| EGA G2 D/2D/2| GGG Bd B/2B/2|\
 dBd A2 B/2G/2| GDE DB, D/2D/2| EGA G2||
